!!!ONB: MCCC : ILB0167_03 : Extracted Monophonic Melody
!!!COM: Beethoven, Ludwig van
!!!OPR: Piano Sonata No.6
!!!OMV: 3
!!!SCT: Op.10 No.2
!!!ODT: 1796///
**kern
*thru
*staff1
*Ipiano
*>A
*clefG2
*k[b-]
*F:
*M2/4
*MM152
8c
=5
8f
8f
8f
8c
=6
8a
8a
8a
8f
=7
8cc
8cc
16cc
16dd
16cc
16b-
=8
8a
8a
16g
16a
8g
=9
8cc
8cc
8cc
8g
=10
8ee
8ee
8ee
8cc
=11
8gg
8gg
16gg
16aa
16gg
16ff
=12
8ee
8ee
16ee
16dd
16ee
16cc
=13
8aa
8aa
16aa
16bb-
16aa
16gg
=14
8ff
8ff
16ff
16ee
16ff
16dd
=15
8fff
8fff
16eee
16ddd#
16eee
16ccc
=16
8fff
8fff
16eee
16ddd#
16eee
16ccc
=17
16ddd
16ccc
16bb
16aa
16gg
16ff
16ee
16dd
=18
16cc
16b
16cc
16dd
16ee
16ff
16gg
16ee
=19
16ff
16dd
16ff
16dd
16ee
16dd#
16ee
16cc
=20
16ff
16dd
16ff
16dd
16ee
16dd#
16ee
16cc
=21
16aa
16gg#
16aa
16gg#
16aa
16gg
16ff
16ee
=22
16dd
16cc
16b
16a
16g
16f
16e
16d
=23
8c
8G
8G
8c
=24
8G
8G
8G
8c
=25
8G
8d
8d
8d
=26
8d
8d
16d
16e
16d
16e
=27
8c
8G
8G
8c
=28
8G
8G
8G
8c
=29
8G
8d
8d
8d
=30
8d
8d
16d
16e
16d
16e
=31
8c
8G
8c
8G
=32
4c
8r
*>A
*M2/4
8r
=33
2r
=34
2r
=35
2r
=36
4r
8r
8c
=37
8f
8f
8f
8c
=38
8a
8a
8a
8f
=39
8cc
8cc
16cc
16dd
16cc
16b-
=40
8a
8a
16g
16a
8g
=41
8cc
8cc
8cc
8g
=42
8ee
8ee
8ee
8cc
=43
8gg
8gg
16gg
16aa
16gg
16ff
=44
8ee
8ee
16ee
16dd
16ee
16cc
=45
8aa
8aa
16aa
16bb-
16aa
16gg
=46
8ff
8ff
16ff
16ee
16ff
16dd
=47
8fff
8fff
16eee
16ddd#
16eee
16ccc
=48
8fff
8fff
16eee
16ddd#
16eee
16ccc
=49
16ddd
16ccc
16bb
16aa
16gg
16ff
16ee
16dd
=50
16cc
16b
16cc
16dd
16ee
16ff
16gg
16ee
=51
16ff
16dd
16ff
16dd
16ee
16dd#
16ee
16cc
=52
16ff
16dd
16ff
16dd
16ee
16dd#
16ee
16cc
=53
16aa
16gg#
16aa
16gg#
16aa
16gg
16ff
16ee
=54
16dd
16cc
16b
16a
16g
16f
16e
16d
=55
8c
8G
8G
8c
=56
8G
8G
8G
8c
=57
8G
8d
8d
8d
=58
8d
8d
16d
16e
16d
16e
=59
8c
8G
8G
8c
=60
8G
8G
8G
8c
=61
8G
8d
8d
8d
=62
8d
8d
16d
16e
16d
16e
=63
8c
8G
8c
8G
=64
4c
8r
*>B
8E-
=65
8A-
8A-
16A-
16G
16A-
16B-
=66
8c
8c
16c
16B
16c
16d-
=67
8e-
8e-
16e-
16d
16e-
16f
=68
8g
8g
16g
16e-
16f
16g
=69
8a-
8a-
8a-
8e-
=70
8cc
8cc
8cc
8a-
=71
8ee-
8ee-
16ee-
16ff
16ee-
16dd
=72
8ee-
8ee-
16ee-
16ff
16ee-
16dd-
=73
8aa-
8aa-
8aa-
8ee-
=74
8ccc
8ccc
8ccc
8aa-
=75
8eee-
8eee-
16eee-
16fff
16eee-
16ddd-
=76
8ccc
8ccc
16ccc
16ddd-
16ccc
16bb-
=77
8aa
8aa
8aa
8bb-
=78
4ccc
4r
=79
8ddd-
8ddd-
16ddd-
16eee-
16ddd-
16ccc
=80
8bb-
8bb-
16bb-
16ccc
16bb-
16aa-
=81
8gg
8gg
8gg
8aa-
=82
2bb-
=83
8aa-
8aa-
16aa-
16gg
16aa-
16ff
=84
2bb
=85
8ccc
8ccc
16ccc
16bb
16ccc
16eee-
=86
2ff#
=87
4gg
16b-
16a
16b-
16g
=88
8ff#
8ff#
16ff#
16ee
16ff#
16dd
=89
8gg
8gg
16gg
16ff#
16gg
16bb-
=90
2cc#
=91
4dd
16f
16e
16f
16d
=92
8cc#
8cc#
16cc#
16b
16cc#
16a
=93
8dd
8dd
16dd
16cc#
16dd
16ff
=94
2g#
=95
2a
=96
2g#
=97
2a
=98
2g#
=99
8a
16aa
16gg#
16aa
16gg#
16aa
16gg#
=100
16aa
16gg#
16aa
16gg#
16aa
16gg#
16aa
16gg#
=101
8aa
8aa
8aa
8aa
=102
8aa
8aa
8aa
8aa
=103
8aa
8bb
8ccc#
8ddd
=104
8eee
8ccc#
8ddd
8eee
=105
8aa
8aa
8aa
8aa
=106
8aa
8aa
8aa
8aa
=107
8aa
8bb
8ccc#
8ddd
=108
8eee
8ccc#
8ddd
8eee
=109
8aa
8aa
8bb
8ccc
=110
8ddd
8bb
8ccc
8ddd
=111
8gg
8gg
8aa
8bb-
=112
8ccc
8aa
8bb-
8ccc
=113
8ff
8ff
8gg
8aa
=114
8bb-
8bb-
8bb-
8bb-
=115
8bb-
8bb-
8bb-
8bb-
=116
8bb-
8bb-
8bb-
8bb-
=117
16bb-
16ccc
16ddd
16ccc
16bb-
16aa
16gg
16ff
=118
16ee
16ff
16gg
16ff
16ee
16dd
16cc
16b-
=119
8a
16ccc
16bb-
16aa
16gg
16ff
16ee
=120
16ff
16ee
16dd
16cc
16b-
16a
16g
16f
=121
16e
16f
16g
16f
16e
16c
16d
16e
=122
16f
16c
16f
16c
16f
16c
16g
16c
=123
8a
8f
8f
8c
=124
8a
8a
8a
8f
=125
8cc
8cc
16cc
16dd
16cc
16b-
=126
16a
16cc
16g
16cc#
16f#
16dd
16a
16cc
=127
8b-
16ddd
16ccc
16bb-
16aa
16gg
16ff#
=128
16gg
16ff
16ee-
16dd
16cc
16b-
16a
16g
=129
16f#
16g
16a
16g
16f#
16d
16e
16f#
=130
16g
16d
16g
16d
16g
16d
16a
16d
=131
8b-
8g
8g
8d
=132
8b-
8b-
8b-
8g
=133
8dd
8dd
16dd
16ee-
16dd
16cc
=134
16b-
16dd
16ee
16b-
16ff
16a
16ee-
16cc
=135
8dd
16fff
16eee-
16ddd
16ccc
16bb-
16aa
=136
16bb-
16aa
16gg
16ff
16ee-
16dd
16cc
16b-
=137
16a
16b-
16cc
16b-
16a
16f
16g
16a
=138
16b-
16f
16b-
16f
16b-
16f
16cc
16f
=139
8dd-
16b-
16bb-
16b-
16bb-
16f
16ff
=140
16dd-
16ddd-
16dd-
16ddd-
16dd-
16ddd-
16b-
16bb-
=141
16ff
16fff
16ff
16fff
16ff
16fff
16ee-
16eee-
=142
16dd-
16ddd-
16dd-
16ddd-
16dd-
16ddd-
16b-
16bb-
=143
16ff
16fff
16ff
16fff
16ff
16fff
16ee-
16eee-
=144
16dd-
16ddd-
16dd-
16ddd-
16dd-
16ddd-
16cc
16ccc
=145
16b-
16bb-
16b-
16bb-
16b-
16bb-
16a-
16aa-
=146
16g-
16gg-
16g-
16gg-
16g-
16gg-
16f
16ff
=147
16e
16ee
16e
16ee
16e
16ee
16g
16gg
=148
16f
16ff
16a-
16aa-
16g
16gg
16b-
16bb-
=149
16a-
16aa-
16cc
16ccc
16a
16aa
16cc
16ccc
=150
16b-
16bb-
16dd-
16ddd-
16cc
16ccc
16ee-
16eee-
=151
16dd-
16ddd-
16dd-
16ddd-
16dd-
16ddd-
16cc
16ccc
=152
16b
16bb
16b
16bb
16b
16bb
16ff
16fff
=153
16ee
16eee
16ee
16eee
16ee
16eee
16b-
16bb-
=154
16a
16aa
16a
16aa
16a
16aa
16ee-
16eee-
=155
8dd
16ddd
16ccc#
16ddd
16ccc
16bb-
16aa
=156
16gg
16ff
16ee
16dd
16cc
16b-
16a
16g
=157
8f
8c
8c
8f
=158
8c
8c
8c
8f
=159
8c
8g
8g
8g
=160
8g
8g
16g
16a
16g
16a
=161
8f
8c
8c
8f
=162
8c
8c
8c
8f
=163
8c
8g
8g
8g
=164
8g
8g
16g
16a
16g
16a
=165
8f
8ccc
8ccc
8ccc
=166
8ccc
8ccc
8ccc
8ccc
=167
8ccc
8ccc
8ccc
8ccc
=168
8ccc
8ccc
8ccc
8ccc
=169
8ccc
8ccc
8ccc
8ccc
=170
8ccc
8ccc
8ccc
8ccc
=171
8ccc
8ccc
8ccc
8ccc
=172
8ccc
8ccc
8ccc
8ccc
=173
8ccc
8ccc
8ccc
8ccc
=174
8ccc
8ccc
8ddd
8eee
=175
8fff
8ccc
8ccc
8ccc
=176
8ccc
8ccc
8ccc
8ccc
=177
8fff
8eee
8ddd
8ccc
=178
8bb-
8aa
8gg
8ccc
=179
8ff
8ee
8dd
8cc
=180
8b-
8a
8g
8cc
=181
4f
4r
=182
4r
8r
*>B
8E-
=183
8A-
8A-
16A-
16G
16A-
16B-
=184
8c
8c
16c
16B
16c
16d-
=185
8e-
8e-
16e-
16d
16e-
16f
=186
8g
8g
16g
16e-
16f
16g
=187
8a-
8a-
8a-
8e-
=188
8cc
8cc
8cc
8a-
=189
8ee-
8ee-
16ee-
16ff
16ee-
16dd
=190
8ee-
8ee-
16ee-
16ff
16ee-
16dd-
=191
8aa-
8aa-
8aa-
8ee-
=192
8ccc
8ccc
8ccc
8aa-
=193
8eee-
8eee-
16eee-
16fff
16eee-
16ddd-
=194
8ccc
8ccc
16ccc
16ddd-
16ccc
16bb-
=195
8aa
8aa
8aa
8bb-
=196
4ccc
4r
=197
8ddd-
8ddd-
16ddd-
16eee-
16ddd-
16ccc
=198
8bb-
8bb-
16bb-
16ccc
16bb-
16aa-
=199
8gg
8gg
8gg
8aa-
=200
2bb-
=201
8aa-
8aa-
16aa-
16gg
16aa-
16ff
=202
2bb
=203
8ccc
8ccc
16ccc
16bb
16ccc
16eee-
=204
2ff#
=205
4gg
16b-
16a
16b-
16g
=206
8ff#
8ff#
16ff#
16ee
16ff#
16dd
=207
8gg
8gg
16gg
16ff#
16gg
16bb-
=208
2cc#
=209
4dd
16f
16e
16f
16d
=210
8cc#
8cc#
16cc#
16b
16cc#
16a
=211
8dd
8dd
16dd
16cc#
16dd
16ff
=212
2g#
=213
2a
=214
2g#
=215
2a
=216
2g#
=217
8a
16aa
16gg#
16aa
16gg#
16aa
16gg#
=218
16aa
16gg#
16aa
16gg#
16aa
16gg#
16aa
16gg#
=219
8aa
8aa
8aa
8aa
=220
8aa
8aa
8aa
8aa
=221
8aa
8bb
8ccc#
8ddd
=222
8eee
8ccc#
8ddd
8eee
=223
8aa
8aa
8aa
8aa
=224
8aa
8aa
8aa
8aa
=225
8aa
8bb
8ccc#
8ddd
=226
8eee
8ccc#
8ddd
8eee
=227
8aa
8aa
8bb
8ccc
=228
8ddd
8bb
8ccc
8ddd
=229
8gg
8gg
8aa
8bb-
=230
8ccc
8aa
8bb-
8ccc
=231
8ff
8ff
8gg
8aa
=232
8bb-
8bb-
8bb-
8bb-
=233
8bb-
8bb-
8bb-
8bb-
=234
8bb-
8bb-
8bb-
8bb-
=235
16bb-
16ccc
16ddd
16ccc
16bb-
16aa
16gg
16ff
=236
16ee
16ff
16gg
16ff
16ee
16dd
16cc
16b-
=237
8a
16ccc
16bb-
16aa
16gg
16ff
16ee
=238
16ff
16ee
16dd
16cc
16b-
16a
16g
16f
=239
16e
16f
16g
16f
16e
16c
16d
16e
=240
16f
16c
16f
16c
16f
16c
16g
16c
=241
8a
8f
8f
8c
=242
8a
8a
8a
8f
=243
8cc
8cc
16cc
16dd
16cc
16b-
=244
16a
16cc
16g
16cc#
16f#
16dd
16a
16cc
=245
8b-
16ddd
16ccc
16bb-
16aa
16gg
16ff#
=246
16gg
16ff
16ee-
16dd
16cc
16b-
16a
16g
=247
16f#
16g
16a
16g
16f#
16d
16e
16f#
=248
16g
16d
16g
16d
16g
16d
16a
16d
=249
8b-
8g
8g
8d
=250
8b-
8b-
8b-
8g
=251
8dd
8dd
16dd
16ee-
16dd
16cc
=252
16b-
16dd
16ee
16b-
16ff
16a
16ee-
16cc
=253
8dd
16fff
16eee-
16ddd
16ccc
16bb-
16aa
=254
16bb-
16aa
16gg
16ff
16ee-
16dd
16cc
16b-
=255
16a
16b-
16cc
16b-
16a
16f
16g
16a
=256
16b-
16f
16b-
16f
16b-
16f
16cc
16f
=257
8dd-
16b-
16bb-
16b-
16bb-
16f
16ff
=258
16dd-
16ddd-
16dd-
16ddd-
16dd-
16ddd-
16b-
16bb-
=259
16ff
16fff
16ff
16fff
16ff
16fff
16ee-
16eee-
=260
16dd-
16ddd-
16dd-
16ddd-
16dd-
16ddd-
16b-
16bb-
=261
16ff
16fff
16ff
16fff
16ff
16fff
16ee-
16eee-
=262
16dd-
16ddd-
16dd-
16ddd-
16dd-
16ddd-
16cc
16ccc
=263
16b-
16bb-
16b-
16bb-
16b-
16bb-
16a-
16aa-
=264
16g-
16gg-
16g-
16gg-
16g-
16gg-
16f
16ff
=265
16e
16ee
16e
16ee
16e
16ee
16g
16gg
=266
16f
16ff
16a-
16aa-
16g
16gg
16b-
16bb-
=267
16a-
16aa-
16cc
16ccc
16a
16aa
16cc
16ccc
=268
16b-
16bb-
16dd-
16ddd-
16cc
16ccc
16ee-
16eee-
=269
16dd-
16ddd-
16dd-
16ddd-
16dd-
16ddd-
16cc
16ccc
=270
16b
16bb
16b
16bb
16b
16bb
16ff
16fff
=271
16ee
16eee
16ee
16eee
16ee
16eee
16b-
16bb-
=272
16a
16aa
16a
16aa
16a
16aa
16ee-
16eee-
=273
8dd
16ddd
16ccc#
16ddd
16ccc
16bb-
16aa
=274
16gg
16ff
16ee
16dd
16cc
16b-
16a
16g
=275
8f
8c
8c
8f
=276
8c
8c
8c
8f
=277
8c
8g
8g
8g
=278
8g
8g
16g
16a
16g
16a
=279
8f
8c
8c
8f
=280
8c
8c
8c
8f
=281
8c
8g
8g
8g
=282
8g
8g
16g
16a
16g
16a
=283
8f
8ccc
8ccc
8ccc
=284
8ccc
8ccc
8ccc
8ccc
=285
8ccc
8ccc
8ccc
8ccc
=286
8ccc
8ccc
8ccc
8ccc
=287
8ccc
8ccc
8ccc
8ccc
=288
8ccc
8ccc
8ccc
8ccc
=289
8ccc
8ccc
8ccc
8ccc
=290
8ccc
8ccc
8ccc
8ccc
=291
8ccc
8ccc
8ccc
8ccc
=292
8ccc
8ccc
8ddd
8eee
=293
8fff
8ccc
8ccc
8ccc
=294
8ccc
8ccc
8ccc
8ccc
=295
8fff
8eee
8ddd
8ccc
=296
8bb-
8aa
8gg
8ccc
=297
8ff
8ee
8dd
8cc
=298
8b-
8a
8g
8cc
=299
4f
4r
=300
4r
8r
==
*-
